app/themes/uggwc_pro/assets/images/icons/checkb.svg

<svg width="16" height="16" viewBox="0 0 16 16" fill="none" xmlns="http://www.w3.org/2000/svg">
<g clip-path="url(#clip0_111_223)">
<path d="M8 0C3.58897 0 0 3.58897 0 8C0 12.411 3.58897 16 8 16C12.411 16 16 12.411 16 8C16 3.58897 12.411 0 8 0ZM12.4712 5.89474L7.3584 10.9674C7.05764 11.2682 6.57644 11.2882 6.25564 10.9875L3.54887 8.5213C3.22807 8.22055 3.20802 7.7193 3.48872 7.3985C3.78947 7.07769 4.29073 7.05764 4.61153 7.3584L6.75689 9.32331L11.3283 4.75188C11.6491 4.43108 12.1504 4.43108 12.4712 4.75188C12.792 5.07268 12.792 5.57393 12.4712 5.89474Z" fill="#6E6CFF"/>
</g>
<defs>
<clipPath id="clip0_111_223">
<rect width="16" height="16" fill="white"/>
</clipPath>
</defs>
</svg>

<svg width="16" height="16" fill="none" xmlns="http://www.w3.org/2000/svg"><g clip-path="url(#a)"><path d="M8 0C3.589 0 0 3.589 0 8s3.589 8 8 8 8-3.589 8-8-3.589-8-8-8zm4.471 5.895-5.113 5.072c-.3.301-.782.321-1.102.02L3.549 8.521a.813.813 0 0 1-.06-1.123c.3-.32.802-.34 1.123-.04l2.145 1.965 4.571-4.571a.799.799 0 0 1 1.143 0c.321.32.321.822 0 1.143z" fill="#6E6CFF"/></g><defs><clipPath id="a"><path fill="#fff" d="M0 0h16v16H0z"/></clipPath></defs></svg>
